assets/buttons/button-secondary.svg

<svg height="44" viewBox="0 0 300 44" width="300" xmlns="http://www.w3.org/2000/svg"><g fill="none" fill-rule="evenodd"><path d="m7.6916556 0h284.6166884c2.674557 0 3.644415.27847683 4.622193.80139811s1.745144 1.290287 2.268065 2.26806478.801398 1.94763649.801398 4.62219271v28.6166888c0 2.6745562-.278477 3.6444149-.801398 4.6221927s-1.290287 1.7451435-2.268065 2.2680648-1.947636.8013981-4.622193.8013981h-284.6166884c-2.67455622 0-3.64441493-.2784768-4.62219271-.8013981s-1.7451435-1.290287-2.26806478-2.2680648-.80139811-1.9476365-.80139811-4.6221927v-28.6166888c0-2.67455622.27847683-3.64441493.80139811-4.62219271s1.290287-1.7451435 2.26806478-2.26806478 1.94763649-.80139811 4.62219271-.80139811z" fill="#000"/><g fill="#fff" fill-rule="nonzero" transform="translate(100.933357 13.796)"><path d="m2.52 12.894h2.646c1.372 0 2.5025-.4375 3.3915-1.3125s1.3335-2.1385 1.3335-3.7905c0-1.666-.441-2.9435-1.323-3.8325s-2.009-1.3335-3.381-1.3335h-2.667zm2.73 2.31h-5.25v-14.889h5.271c2.1 0 3.8325.665 5.1975 1.995s2.0475 3.157 2.0475 5.481c0 2.31-.686 4.123-2.058 5.439s-3.108 1.974-5.208 1.974z"/><path d="m17.85 12.474c.56.574 1.239.861 2.037.861s1.4735-.287 2.0265-.861.8295-1.372.8295-2.394c0-1.008-.2765-1.7955-.8295-2.3625s-1.2285-.8505-2.0265-.8505-1.4735.2835-2.0265.8505-.8295 1.3545-.8295 2.3625.273 1.806.819 2.394zm2.037-7.812c1.54 0 2.8105.511 3.8115 1.533s1.5015 2.317 1.5015 3.885-.5005 2.8665-1.5015 3.8955-2.2715 1.5435-3.8115 1.5435c-1.526 0-2.7895-.5145-3.7905-1.5435s-1.5015-2.3275-1.5015-3.8955.5005-2.863 1.5015-3.885 2.2645-1.533 3.7905-1.533z"/><path d="m33.495 4.977h2.52l2.415 7.077 2.037-7.077h2.478l-3.276 10.227h-2.436l-2.541-7.35-2.478 7.35h-2.499l-3.318-10.227h2.604l2.079 7.077z"/><path d="m47.628 9.303v5.901h-2.436v-10.227h2.373v1.365c.322-.56.7525-.9765 1.2915-1.2495s1.1165-.4095 1.7325-.4095c1.204 0 2.121.378 2.751 1.134s.945 1.729.945 2.919v6.468h-2.436v-6.048c0-.686-.168-1.2355-.504-1.6485s-.868-.6195-1.596-.6195c-.672 0-1.1935.2275-1.5645.6825s-.5565 1.0325-.5565 1.7325z"/><path d="m60.081 15.204h-2.436v-15.204h2.436z"/><path d="m66.087 12.474c.56.574 1.239.861 2.037.861s1.4735-.287 2.0265-.861.8295-1.372.8295-2.394c0-1.008-.2765-1.7955-.8295-2.3625s-1.2285-.8505-2.0265-.8505-1.4735.2835-2.0265.8505-.8295 1.3545-.8295 2.3625.273 1.806.819 2.394zm2.037-7.812c1.54 0 2.8105.511 3.8115 1.533s1.5015 2.317 1.5015 3.885-.5005 2.8665-1.5015 3.8955-2.2715 1.5435-3.8115 1.5435c-1.526 0-2.7895-.5145-3.7905-1.5435s-1.5015-2.3275-1.5015-3.8955.5005-2.863 1.5015-3.885 2.2645-1.533 3.7905-1.533z"/><path d="m75.558 12.432c0-.868.2835-1.5645.8505-2.0895s1.3125-.8575 2.2365-.9975l2.625-.399c.504-.07.756-.315.756-.735 0-.462-.161-.8365-.483-1.1235s-.805-.4305-1.449-.4305c-.616 0-1.106.1715-1.47.5145s-.574.7875-.63 1.3335l-2.226-.504c.098-.924.539-1.7115 1.323-2.3625s1.778-.9765 2.982-.9765c1.484 0 2.5795.357 3.2865 1.071s1.0605 1.631 1.0605 2.751v5.082c0 .672.042 1.218.126 1.638h-2.268c-.07-.21-.105-.644-.105-1.302-.672 1.078-1.722 1.617-3.15 1.617-1.036 0-1.8725-.3045-2.5095-.9135s-.9555-1.3335-.9555-2.1735zm3.927 1.176c.756 0 1.3685-.2065 1.8375-.6195s.7035-1.0885.7035-2.0265v-.462l-2.667.399c-.91.154-1.365.616-1.365 1.386 0 .364.133.6755.399.9345s.63.3885 1.092.3885z"/><path d="m89.376 10.059c0 .98.252 1.7675.756 2.3625s1.169.8925 1.995.8925c.798 0 1.449-.301 1.953-.903s.756-1.393.756-2.373c0-.966-.245-1.736-.735-2.31s-1.141-.861-1.953-.861-1.477.2905-1.995.8715-.777 1.3545-.777 2.3205zm7.812-10.059v13.335c0 .686.035 1.309.105 1.869h-2.331c-.07-.392-.105-.833-.105-1.323-.252.462-.644.84-1.176 1.134s-1.141.441-1.827.441c-1.456 0-2.639-.511-3.549-1.533s-1.365-2.31-1.365-3.864c0-1.498.4585-2.765 1.3755-3.801s2.0825-1.554 3.4965-1.554c.812 0 1.4665.147 1.9635.441s.8435.637 1.0395 1.029v-6.174z"/></g></g></svg>

<?xml version="1.0" encoding="UTF-8"?>
<svg width="300px" height="44px" viewBox="0 0 300 44" version="1.1" xmlns="http://www.w3.org/2000/svg" xmlns:xlink="http://www.w3.org/1999/xlink">
    <title>button-secondary</title>
    <g id="Buttons" stroke="none" stroke-width="1" fill="none" fill-rule="evenodd">
        <g id="button-secondary">
            <g id="Button-Shape" fill="#000000">
                <path d="M7.6916556,-3.10752092e-16 L292.308344,3.10752092e-16 C294.982901,-1.80555915e-16 295.952759,0.278476833 296.930537,0.801398111 C297.908315,1.32431939 298.675681,2.09168511 299.198602,3.06946289 C299.721523,4.04724067 300,5.01709938 300,7.6916556 L300,36.3083444 C300,38.9829006 299.721523,39.9527593 299.198602,40.9305371 C298.675681,41.9083149 297.908315,42.6756806 296.930537,43.1986019 C295.952759,43.7215232 294.982901,44 292.308344,44 L7.6916556,44 C5.01709938,44 4.04724067,43.7215232 3.06946289,43.1986019 C2.09168511,42.6756806 1.32431939,41.9083149 0.801398111,40.9305371 C0.278476833,39.9527593 1.70106086e-15,38.9829006 -2.92767048e-15,36.3083444 L2.07168062e-16,7.6916556 C-1.2037061e-16,5.01709938 0.278476833,4.04724067 0.801398111,3.06946289 C1.32431939,2.09168511 2.09168511,1.32431939 3.06946289,0.801398111 C4.04724067,0.278476833 5.01709938,1.80555915e-16 7.6916556,-3.10752092e-16 Z" id="Appearance"></path>
            </g>
            <g id="Label" transform="translate(99.142857, 9.000000)" fill="#FFFFFF" fill-rule="nonzero">
                <g id="Outlines" transform="translate(1.790500, 4.796000)">
                    <path d="M2.52,12.894 L5.166,12.894 C6.538,12.894 7.6685,12.4565 8.5575,11.5815 C9.4465,10.7065 9.891,9.443 9.891,7.791 C9.891,6.125 9.45,4.8475 8.568,3.9585 C7.686,3.0695 6.559,2.625 5.187,2.625 L2.52,2.625 L2.52,12.894 Z M5.25,15.204 L0,15.204 L0,0.315 L5.271,0.315 C7.371,0.315 9.1035,0.98 10.4685,2.31 C11.8335,3.64 12.516,5.467 12.516,7.791 C12.516,10.101 11.83,11.914 10.458,13.23 C9.086,14.546 7.35,15.204 5.25,15.204 Z" id="Shape"></path>
                    <path d="M17.85,12.474 C18.41,13.048 19.089,13.335 19.887,13.335 C20.685,13.335 21.3605,13.048 21.9135,12.474 C22.4665,11.9 22.743,11.102 22.743,10.08 C22.743,9.072 22.4665,8.2845 21.9135,7.7175 C21.3605,7.1505 20.685,6.867 19.887,6.867 C19.089,6.867 18.4135,7.1505 17.8605,7.7175 C17.3075,8.2845 17.031,9.072 17.031,10.08 C17.031,11.088 17.304,11.886 17.85,12.474 Z M19.887,4.662 C21.427,4.662 22.6975,5.173 23.6985,6.195 C24.6995,7.217 25.2,8.512 25.2,10.08 C25.2,11.648 24.6995,12.9465 23.6985,13.9755 C22.6975,15.0045 21.427,15.519 19.887,15.519 C18.361,15.519 17.0975,15.0045 16.0965,13.9755 C15.0955,12.9465 14.595,11.648 14.595,10.08 C14.595,8.512 15.0955,7.217 16.0965,6.195 C17.0975,5.173 18.361,4.662 19.887,4.662 Z" id="Shape"></path>
                    <polygon id="Path" points="33.495 4.977 36.015 4.977 38.43 12.054 40.467 4.977 42.945 4.977 39.669 15.204 37.233 15.204 34.692 7.854 32.214 15.204 29.715 15.204 26.397 4.977 29.001 4.977 31.08 12.054"></polygon>
                    <path d="M47.628,9.303 L47.628,15.204 L45.192,15.204 L45.192,4.977 L47.565,4.977 L47.565,6.342 C47.887,5.782 48.3175,5.3655 48.8565,5.0925 C49.3955,4.8195 49.973,4.683 50.589,4.683 C51.793,4.683 52.71,5.061 53.34,5.817 C53.97,6.573 54.285,7.546 54.285,8.736 L54.285,15.204 L51.849,15.204 L51.849,9.156 C51.849,8.47 51.681,7.9205 51.345,7.5075 C51.009,7.0945 50.477,6.888 49.749,6.888 C49.077,6.888 48.5555,7.1155 48.1845,7.5705 C47.8135,8.0255 47.628,8.603 47.628,9.303 Z" id="Path"></path>
                    <polygon id="Path" points="60.081 15.204 57.645 15.204 57.645 0 60.081 0"></polygon>
                    <path d="M66.087,12.474 C66.647,13.048 67.326,13.335 68.124,13.335 C68.922,13.335 69.5975,13.048 70.1505,12.474 C70.7035,11.9 70.98,11.102 70.98,10.08 C70.98,9.072 70.7035,8.2845 70.1505,7.7175 C69.5975,7.1505 68.922,6.867 68.124,6.867 C67.326,6.867 66.6505,7.1505 66.0975,7.7175 C65.5445,8.2845 65.268,9.072 65.268,10.08 C65.268,11.088 65.541,11.886 66.087,12.474 Z M68.124,4.662 C69.664,4.662 70.9345,5.173 71.9355,6.195 C72.9365,7.217 73.437,8.512 73.437,10.08 C73.437,11.648 72.9365,12.9465 71.9355,13.9755 C70.9345,15.0045 69.664,15.519 68.124,15.519 C66.598,15.519 65.3345,15.0045 64.3335,13.9755 C63.3325,12.9465 62.832,11.648 62.832,10.08 C62.832,8.512 63.3325,7.217 64.3335,6.195 C65.3345,5.173 66.598,4.662 68.124,4.662 Z" id="Shape"></path>
                    <path d="M75.558,12.432 C75.558,11.564 75.8415,10.8675 76.4085,10.3425 C76.9755,9.8175 77.721,9.485 78.645,9.345 L81.27,8.946 C81.774,8.876 82.026,8.631 82.026,8.211 C82.026,7.749 81.865,7.3745 81.543,7.0875 C81.221,6.8005 80.738,6.657 80.094,6.657 C79.478,6.657 78.988,6.8285 78.624,7.1715 C78.26,7.5145 78.05,7.959 77.994,8.505 L75.768,8.001 C75.866,7.077 76.307,6.2895 77.091,5.6385 C77.875,4.9875 78.869,4.662 80.073,4.662 C81.557,4.662 82.6525,5.019 83.3595,5.733 C84.0665,6.447 84.42,7.364 84.42,8.484 L84.42,13.566 C84.42,14.238 84.462,14.784 84.546,15.204 L82.278,15.204 C82.208,14.994 82.173,14.56 82.173,13.902 C81.501,14.98 80.451,15.519 79.023,15.519 C77.987,15.519 77.1505,15.2145 76.5135,14.6055 C75.8765,13.9965 75.558,13.272 75.558,12.432 Z M79.485,13.608 C80.241,13.608 80.8535,13.4015 81.3225,12.9885 C81.7915,12.5755 82.026,11.9 82.026,10.962 L82.026,10.5 L79.359,10.899 C78.449,11.053 77.994,11.515 77.994,12.285 C77.994,12.649 78.127,12.9605 78.393,13.2195 C78.659,13.4785 79.023,13.608 79.485,13.608 Z" id="Shape"></path>
                    <path d="M89.376,10.059 C89.376,11.039 89.628,11.8265 90.132,12.4215 C90.636,13.0165 91.301,13.314 92.127,13.314 C92.925,13.314 93.576,13.013 94.08,12.411 C94.584,11.809 94.836,11.018 94.836,10.038 C94.836,9.072 94.591,8.302 94.101,7.728 C93.611,7.154 92.96,6.867 92.148,6.867 C91.336,6.867 90.671,7.1575 90.153,7.7385 C89.635,8.3195 89.376,9.093 89.376,10.059 Z M97.188,0 L97.188,13.335 C97.188,14.021 97.223,14.644 97.293,15.204 L94.962,15.204 C94.892,14.812 94.857,14.371 94.857,13.881 C94.605,14.343 94.213,14.721 93.681,15.015 C93.149,15.309 92.54,15.456 91.854,15.456 C90.398,15.456 89.215,14.945 88.305,13.923 C87.395,12.901 86.94,11.613 86.94,10.059 C86.94,8.561 87.3985,7.294 88.3155,6.258 C89.2325,5.222 90.398,4.704 91.812,4.704 C92.624,4.704 93.2785,4.851 93.7755,5.145 C94.2725,5.439 94.619,5.782 94.815,6.174 L94.815,0 L97.188,0 Z" id="Shape"></path>
                </g>
            </g>
        </g>
    </g>
</svg>
